Yosa-Max/apps/scalable/libreoffice-math.svg

<?xml version="1.0" encoding="UTF-8"?>
<svg id="svg30" version="1.1" viewBox="0 0 48 48" xmlns="http://www.w3.org/2000/svg" xmlns:xlink="http://www.w3.org/1999/xlink">
 <defs id="defs34">
  <linearGradient id="linearGradient891" x1="-31.749992" x2="-31.749992" y1="47.293053" y2="3.2930527" gradientTransform="translate(55.75,-1.2929689)" gradientUnits="userSpaceOnUse">
   <stop id="stop885" style="stop-color:#ee4d73" offset="0"/>
   <stop id="stop887" style="stop-color:#f47391" offset="1"/>
  </linearGradient>
 </defs>
 <path id="rect883" d="m7 1.9999999v44h34v-29.171875l-13.414062-13.414063-1.414063-1.4140624z" style="fill:url(#linearGradient891);paint-order:stroke fill markers"/>
 <path id="rect893" d="m29 1.9999999 12 12v-12z" style="fill:#e32f5a;paint-order:stroke fill markers"/>
 <path id="path892" d="m18 15 1.310547 2 4.582031 7-4.582031 7-1.310547 2h2.390625 9.609375v-2h-8.298828l3.388672-5.173828 1.195312-1.826172-1.195312-1.826172-3.388672-5.173828h8.298828v-2h-9.609375-2.390625z" style="fill:#ffffff;paint-order:stroke fill markers"/>
</svg>

<?xml version="1.0" encoding="UTF-8" standalone="no"?>
<svg
   xmlns:dc="http://purl.org/dc/elements/1.1/"
   xmlns:cc="http://creativecommons.org/ns#"
   xmlns:rdf="http://www.w3.org/1999/02/22-rdf-syntax-ns#"
   xmlns:svg="http://www.w3.org/2000/svg"
   xmlns="http://www.w3.org/2000/svg"
   xmlns:xlink="http://www.w3.org/1999/xlink"
   xmlns:sodipodi="http://sodipodi.sourceforge.net/DTD/sodipodi-0.dtd"
   xmlns:inkscape="http://www.inkscape.org/namespaces/inkscape"
   height="48"
   width="48"
   version="1.1"
   id="svg30"
   sodipodi:docname="libreoffice-math.svg"
   inkscape:version="0.92.2 2405546, 2018-03-11">
  <metadata
     id="metadata36">
    <rdf:RDF>
      <cc:Work
         rdf:about="">
        <dc:format>image/svg+xml</dc:format>
        <dc:type
           rdf:resource="http://purl.org/dc/dcmitype/StillImage" />
        <dc:title />
      </cc:Work>
    </rdf:RDF>
  </metadata>
  <defs
     id="defs34">
    <linearGradient
       inkscape:collect="always"
       id="linearGradient889">
      <stop
         style="stop-color:#ee4d73;stop-opacity:1"
         offset="0"
         id="stop885" />
      <stop
         style="stop-color:#f47391;stop-opacity:1"
         offset="1"
         id="stop887" />
    </linearGradient>
    <linearGradient
       id="linearGradient863">
      <stop
         style="stop-color:#a5a5a5;stop-opacity:1"
         offset="0"
         id="stop859" />
      <stop
         style="stop-color:#dbdbdb;stop-opacity:1"
         offset="1"
         id="stop861" />
    </linearGradient>
    <linearGradient
       id="linearGradient822">
      <stop
         style="stop-color:#0652ff;stop-opacity:1"
         offset="0"
         id="stop818" />
      <stop
         style="stop-color:#1b99ff;stop-opacity:1"
         offset="1"
         id="stop820" />
    </linearGradient>
    <linearGradient
       x1="411.66486"
       id="c-3"
       y1="532.612"
       y2="514.79797"
       x2="406.56763"
       gradientUnits="userSpaceOnUse"
       gradientTransform="matrix(2.4445151,0,0,2.4445151,-974.7584,-1256.4318)">
      <stop
         style="stop-color:#2e89fc;stop-opacity:1"
         stop-color="#7cbaf8"
         id="stop12" />
      <stop
         style="stop-color:#42f2ff;stop-opacity:1"
         offset="1"
         stop-color="#f4fcff"
         id="stop14" />
    </linearGradient>
    <linearGradient
       xlink:href="#linearGradient822"
       id="linearGradient824"
       x1="26.10714"
       y1="45.762711"
       x2="26.10714"
       y2="2.4374466"
       gradientUnits="userSpaceOnUse"
       gradientTransform="matrix(0.3097139,0,0,0.3097139,393.13824,522.33096)" />
    <linearGradient
       xlink:href="#linearGradient863"
       id="linearGradient865"
       x1="400.55444"
       y1="517.83185"
       x2="400.55444"
       y2="545.22168"
       gradientUnits="userSpaceOnUse" />
    <linearGradient
       inkscape:collect="always"
       xlink:href="#linearGradient889"
       id="linearGradient891"
       x1="-31.749992"
       y1="47.293053"
       x2="-31.749992"
       y2="3.2930527"
       gradientUnits="userSpaceOnUse"
       gradientTransform="translate(55.75,-1.2929689)" />
  </defs>
  <sodipodi:namedview
     pagecolor="#ffffff"
     bordercolor="#666666"
     borderopacity="1"
     objecttolerance="10"
     gridtolerance="10"
     guidetolerance="10"
     inkscape:pageopacity="0"
     inkscape:pageshadow="2"
     inkscape:window-width="1366"
     inkscape:window-height="699"
     id="namedview32"
     showgrid="false"
     inkscape:zoom="10.145833"
     inkscape:cx="24"
     inkscape:cy="24"
     inkscape:window-x="0"
     inkscape:window-y="0"
     inkscape:window-maximized="1"
     inkscape:current-layer="svg30"
     inkscape:snap-intersection-paths="false"
     inkscape:object-paths="true"
     inkscape:snap-midpoints="false"
     inkscape:snap-smooth-nodes="true"
     inkscape:snap-bbox="true"
     inkscape:bbox-nodes="true"
     inkscape:snap-object-midpoints="false"
     inkscape:snap-center="false" />
  <linearGradient
     id="a">
    <stop
       offset="0"
       stop-color="#f6fbff"
       id="stop2" />
    <stop
       offset="1"
       stop-color="#eaeff2"
       id="stop4" />
  </linearGradient>
  <linearGradient
     id="b"
     gradientUnits="userSpaceOnUse"
     x1="-8.074407655036"
     x2="-8.074407655036"
     xlink:href="#a"
     y1="1040.75873257757"
     y2="1026.78602967757"
     gradientTransform="matrix(1.4185315,0,0,1.4185147,33.135709,-1444.1317)" />
  <linearGradient
     id="c"
     gradientTransform="matrix(1.6857072,0,0,1.63503,-13.432475,-1651.8306)"
     gradientUnits="userSpaceOnUse"
     x1="17"
     x2="17"
     y1="1036.3622"
     y2="1012.3622">
    <stop
       offset="0"
       stop-color="#ec2e5b"
       id="stop8" />
    <stop
       offset="1"
       stop-color="#f56c8c"
       id="stop10" />
  </linearGradient>
  <linearGradient
     id="d"
     gradientTransform="matrix(1.0758223,0,0,1.63503,6.9150333,-1651.8306)"
     gradientUnits="userSpaceOnUse"
     x1="33.461716"
     x2="34.116894"
     xlink:href="#a"
     y1="1013.622"
     y2="1037.2084" />
  <text
     xml:space="preserve"
     style="font-style:normal;font-weight:normal;font-size:40px;line-height:1.25;font-family:sans-serif;letter-spacing:0px;word-spacing:0px;fill:#000000;fill-opacity:1;stroke:none"
     x="-31.496214"
     y="25.851976"
     id="text879"><tspan
       sodipodi:role="line"
       id="tspan877"
       x="-31.496214"
       y="61.242599" /></text>
  <path
     inkscape:connector-curvature="0"
     style="opacity:1;fill:url(#linearGradient891);fill-opacity:1;stroke:none;stroke-width:3;stroke-linecap:round;stroke-linejoin:miter;stroke-miterlimit:4;stroke-dasharray:none;stroke-opacity:1;paint-order:stroke fill markers"
     d="M 7,1.9999999 V 46 H 41 V 16.828125 L 27.585938,3.4140623 26.171875,1.9999999 Z"
     id="rect883" />
  <path
     inkscape:connector-curvature="0"
     style="opacity:1;fill:#e32f5a;fill-opacity:1;stroke:none;stroke-width:3;stroke-linecap:round;stroke-linejoin:miter;stroke-miterlimit:4;stroke-dasharray:none;stroke-opacity:1;paint-order:stroke fill markers"
     d="M 29,1.9999999 41,14 V 1.9999999 Z"
     id="rect893" />
  <path
     style="opacity:1;fill:#ffffff;fill-opacity:1;stroke:none;stroke-width:0.1;stroke-linecap:square;stroke-linejoin:miter;stroke-miterlimit:4;stroke-dasharray:none;stroke-opacity:1;paint-order:stroke fill markers"
     d="M 18 15 L 19.310547 17 L 23.892578 24 L 19.310547 31 L 18 33 L 20.390625 33 L 30 33 L 30 31 L 21.701172 31 L 25.089844 25.826172 L 26.285156 24 L 25.089844 22.173828 L 21.701172 17 L 30 17 L 30 15 L 20.390625 15 L 18 15 z "
     id="path892" />
</svg>
